svg/emoji_u1f69f.svg

<?xml version="1.0" encoding="UTF-8"?>
<svg width="128" height="128" enable-background="new 0 0 128 128" xmlns="http://www.w3.org/2000/svg"><rect x="4" y="12" width="120" height="12" fill="#455A64"/><rect x="6.01" y="16" width="117.99" height="4.05" fill="#E0E0E0"/><g opacity=".2"><path d="m122 14v8h-116v-8h116m2-2h-120v12h120v-12z" fill="#eee"/></g><path d="m60.75 20c3.25 0 5.92-2.75 5.92-6s-2.67-6-5.92-6h-20.33c-3.25 0-5.92 2.75-5.92 6s2.66 6 5.92 6h6.58v12h-2.38l-1.25 4h-4.29c-1.52 0-2.75 1.48-2.75 3s1.23 3 2.75 3h23c1.52 0 2.75-1.48 2.75-3s-1.23-3-2.75-3h-3.95l-1.26-4h-1.87v-12h5.75z" fill="#90A4AE"/><path d="m112.21 20c3.25 0 5.92-2.75 5.92-6s-2.66-6-5.92-6h-20.33c-3.25 0-5.92 2.75-5.92 6s2.66 6 5.92 6h6.12v12h-1.92l-1.25 4h-4.29c-1.52 0-2.75 1.48-2.75 3s1.23 3 2.75 3h23c1.52 0 2.75-1.48 2.75-3s-1.23-3-2.75-3h-3.95l-1.26-4h-2.33v-12h6.21z" fill="#90A4AE"/><g opacity=".2"><path d="m60.88 10c2.12 0 3.85 1.83 3.85 4s-1.86 4-3.98 4h-5.75c-1.1 0-2 0.9-2 2v12c0 1.1 0.9 2 2 2h0.41l0.82 2.6c0.26 0.83 1.03 1.4 1.91 1.4h3.95c0.32 0 0.75 0.49 0.75 1s-0.43 1-0.75 1h-23c-0.32 0-0.75-0.49-0.75-1s0.43-1 0.75-1h4.29c0.87 0 1.65-0.57 1.91-1.4l0.81-2.6h0.9c1.1 0 2-0.9 2-2v-12c0-1.1-0.9-2-2-2h-6.58c-2.12 0-3.92-1.83-3.92-4s1.79-4 3.92-4h20.58m-0.25-2h-20.33c-3.25 0-5.92 2.75-5.92 6s2.66 6 5.92 6h6.58v12h-2.38l-1.25 4h-4.29c-1.52 0-2.75 1.48-2.75 3s1.23 3 2.75 3h23c1.52 0 2.75-1.48 2.75-3s-1.23-3-2.75-3h-3.95l-1.26-4h-1.87v-12h5.75c3.25 0 5.92-2.75 5.92-6s-2.67-6-5.92-6z" fill="#424242"/></g><g opacity=".2"><path d="m112.1 10c2.12 0 3.97 1.83 3.97 4s-1.74 4-3.86 4h-6.21c-1.1 0-2 0.9-2 2v12c0 1.1 0.9 2 2 2h0.87l0.82 2.6c0.26 0.83 1.03 1.4 1.91 1.4h3.95c0.32 0 0.75 0.49 0.75 1s-0.43 1-0.75 1h-23c-0.32 0-0.75-0.49-0.75-1s0.43-1 0.75-1h4.29c0.87 0 1.65-0.57 1.91-1.4l0.81-2.6h0.44c1.1 0 2-0.9 2-2v-12c0-1.1-0.9-2-2-2h-6.12c-2.12 0-3.92-1.83-3.92-4s1.79-4 3.92-4h20.12m0.21-2h-20.33c-3.25 0-5.92 2.75-5.92 6s2.66 6 5.92 6h6.12v12h-1.92l-1.25 4h-4.29c-1.52 0-2.75 1.48-2.75 3s1.23 3 2.75 3h23c1.52 0 2.75-1.48 2.75-3s-1.23-3-2.75-3h-3.95l-1.26-4h-2.33v-12h6.21c3.25 0 5.92-2.75 5.92-6s-2.67-6-5.92-6z" fill="#424242"/></g><linearGradient id="a" x1="68.242" x2="68.242" y1="42.75" y2="104" gradientUnits="userSpaceOnUse"><stop stop-color="#EF5350" offset=".1136"/><stop stop-color="#DB3938" offset=".6267"/><stop stop-color="#D32F2F" offset=".9452"/></linearGradient><path d="M124,40H27.97c-4.39,0-7.98,3.6-7.98,8l-7.5,56.33H124V40z" fill="url(#a)"/><path d="M124,104.33H12.48L12,107.97c0,4.4,3.59,8,7.98,8H124V104.33z" fill="#E0E0E0"/><path d="M124,113H19.98c-2.78,0-4.89-1.96-4.98-4.57l0.45-3.64l7.5-56.58 c0.02-0.13,0.03-0.27,0.03-0.4c0-2.69,2.19-4.8,4.98-4.8H124v-3H27.96c-4.39,0-7.98,3.37-7.98,7.8l-7.5,56.58L12,108.26 c0,4.43,3.59,7.74,7.98,7.74H124V113z" fill="#424242" opacity=".2"/><path d="m112 92h-15.39c-2.2 0-4-1.8-4-4v-32c0-2.2 1.8-4 4-4h15.39c2.2 0 4 1.8 4 4v32c0 2.2-1.8 4-4 4z" fill="#4FC3F7"/><path d="m80.81 92h-15.4c-2.2 0-4-1.8-4-4v-32c0-2.2 1.8-4 4-4h15.39c2.2 0 4 1.8 4 4v32c0.01 2.2-1.79 4-3.99 4z" fill="#4FC3F7"/><path d="M49.37,92H29.77c-2.07,0-3.54-1.64-3.27-3.64L31,55.64c0.27-2,2.19-3.64,4.27-3.64h15.06 c2.07,0,3.54,1.64,3.27,3.64l0.03,32.73C53.36,90.36,51.44,92,49.37,92z" fill="#4FC3F7"/><path d="m112 92h-15.39c-2.2 0-4-1.8-4-4v-32c0-2.2 1.8-4 4-4h15.39c2.2 0 4 1.8 4 4v32c0 2.2-1.8 4-4 4z" fill="none"/><path d="m80.81 92h-15.4c-2.2 0-4-1.8-4-4v-32c0-2.2 1.8-4 4-4h15.39c2.2 0 4 1.8 4 4v32c0.01 2.2-1.79 4-3.99 4z" fill="none"/><path d="M49.37,92H29.77c-2.07,0-3.54-1.64-3.27-3.64L31,55.64c0.27-2,2.19-3.64,4.27-3.64h15.06 c2.07,0,3.54,1.64,3.27,3.64l0.03,32.73C53.36,90.36,51.44,92,49.37,92z" fill="none"/><g opacity=".2"><path d="m112 55c0.54 0 1 0.46 1 1v32c0 0.54-0.46 1-1 1h-15.39c-0.54 0-1-0.46-1-1v-32c0-0.54 0.46-1 1-1h15.39m0-3h-15.39c-2.2 0-4 1.8-4 4v32c0 2.2 1.8 4 4 4h15.39c2.2 0 4-1.8 4-4v-32c0-2.2-1.8-4-4-4z" fill="#424242"/></g><g opacity=".2"><path d="m80.81 55c0.54 0 1 0.46 1 1v32c0 0.54-0.46 1-1 1h-15.4c-0.54 0-1-0.46-1-1v-32c0-0.54 0.46-1 1-1h15.4m0-3h-15.4c-2.2 0-4 1.8-4 4v32c0 2.2 1.8 4 4 4h15.39c2.2 0 4-1.8 4-4v-32c0.01-2.2-1.79-4-3.99-4z" fill="#424242"/></g><g opacity=".2"><path d="m50.33 55c0.17 0 0.26 0.05 0.28 0.07s0.02 0.08 0.01 0.15c-0.02 0.14-0.03 0.27-0.03 0.41l0.03 32.44c-0.14 0.44-0.7 0.92-1.27 0.92h-19.58c-0.17 0-0.26-0.05-0.28-0.07s-0.02-0.08-0.01-0.15l4.49-32.73c0.06-0.47 0.67-1.04 1.29-1.04h15.07m0-3h-15.06c-2.07 0-3.99 1.64-4.27 3.64l-4.49 32.73c-0.27 2 1.2 3.64 3.27 3.64h19.59c2.07 0 3.99-1.64 4.27-3.64l-0.04-32.73c0.27-2-1.2-3.64-3.27-3.64z" fill="#424242"/></g></svg>

<svg width="128" height="128" style="enable-background:new 0 0 128 128;" xmlns="http://www.w3.org/2000/svg" xmlns:xlink="http://www.w3.org/1999/xlink">
  <rect height="12" style="fill:#455A64;" width="120" x="4" y="12"/>
  <rect height="4.05" style="fill:#E0E0E0;" width="117.99" x="6.01" y="16"/>
  <g style="opacity:0.2;">
    <path d="M122,14v8H6v-8H122 M124,12H4v12h120V12L124,12z" style="fill:#EEEEEE;"/>
  </g>
  <path d="M60.75,20c3.25,0,5.92-2.75,5.92-6S64,8,60.75,8H40.42c-3.25,0-5.92,2.75-5.92,6s2.66,6,5.92,6H47 v12h-2.38l-1.25,4h-4.29c-1.52,0-2.75,1.48-2.75,3c0,1.52,1.23,3,2.75,3h23c1.52,0,2.75-1.48,2.75-3c0-1.52-1.23-3-2.75-3h-3.95 l-1.26-4H55V20H60.75z" style="fill:#90A4AE;"/>
  <path d="M112.21,20c3.25,0,5.92-2.75,5.92-6s-2.66-6-5.92-6H91.88c-3.25,0-5.92,2.75-5.92,6s2.66,6,5.92,6 H98v12h-1.92l-1.25,4h-4.29c-1.52,0-2.75,1.48-2.75,3c0,1.52,1.23,3,2.75,3h23c1.52,0,2.75-1.48,2.75-3c0-1.52-1.23-3-2.75-3h-3.95 l-1.26-4H106V20H112.21z" style="fill:#90A4AE;"/>
  <g style="opacity:0.2;">
    <path d="M60.88,10c2.12,0,3.85,1.83,3.85,4s-1.86,4-3.98,4H55c-1.1,0-2,0.9-2,2v12c0,1.1,0.9,2,2,2h0.41 l0.82,2.6c0.26,0.83,1.03,1.4,1.91,1.4h3.95c0.32,0,0.75,0.49,0.75,1s-0.43,1-0.75,1h-23c-0.32,0-0.75-0.49-0.75-1s0.43-1,0.75-1 h4.29c0.87,0,1.65-0.57,1.91-1.4L46.1,34H47c1.1,0,2-0.9,2-2V20c0-1.1-0.9-2-2-2h-6.58c-2.12,0-3.92-1.83-3.92-4s1.79-4,3.92-4H61 M60.75,8H40.42c-3.25,0-5.92,2.75-5.92,6s2.66,6,5.92,6H47v12h-2.38l-1.25,4h-4.29c-1.52,0-2.75,1.48-2.75,3c0,1.52,1.23,3,2.75,3 h23c1.52,0,2.75-1.48,2.75-3c0-1.52-1.23-3-2.75-3h-3.95l-1.26-4H55V20h5.75c3.25,0,5.92-2.75,5.92-6S64,8,60.75,8L60.75,8z" style="fill:#424242;"/>
  </g>
  <g style="opacity:0.2;">
    <path d="M112.1,10c2.12,0,3.97,1.83,3.97,4s-1.74,4-3.86,4H106c-1.1,0-2,0.9-2,2v12c0,1.1,0.9,2,2,2h0.87 l0.82,2.6c0.26,0.83,1.03,1.4,1.91,1.4h3.95c0.32,0,0.75,0.49,0.75,1s-0.43,1-0.75,1h-23c-0.32,0-0.75-0.49-0.75-1s0.43-1,0.75-1 h4.29c0.87,0,1.65-0.57,1.91-1.4l0.81-2.6H98c1.1,0,2-0.9,2-2V20c0-1.1-0.9-2-2-2h-6.12c-2.12,0-3.92-1.83-3.92-4s1.79-4,3.92-4 H112 M112.21,8H91.88c-3.25,0-5.92,2.75-5.92,6s2.66,6,5.92,6H98v12h-1.92l-1.25,4h-4.29c-1.52,0-2.75,1.48-2.75,3 c0,1.52,1.23,3,2.75,3h23c1.52,0,2.75-1.48,2.75-3c0-1.52-1.23-3-2.75-3h-3.95l-1.26-4H106V20h6.21c3.25,0,5.92-2.75,5.92-6 S115.46,8,112.21,8L112.21,8z" style="fill:#424242;"/>
  </g>
  <linearGradient id="SVGID_1_" gradientUnits="userSpaceOnUse" x1="68.2425" x2="68.2425" y1="42.75" y2="104.0021">
    <stop offset="0.1136" style="stop-color:#EF5350"/>
    <stop offset="0.6267" style="stop-color:#DB3938"/>
    <stop offset="0.9452" style="stop-color:#D32F2F"/>
  </linearGradient>
  <path d="M124,40H27.97c-4.39,0-7.98,3.6-7.98,8l-7.5,56.33H124V40z" style="fill:url(#SVGID_1_);"/>
  <path d="M124,104.33H12.48L12,107.97c0,4.4,3.59,8,7.98,8H124V104.33z" style="fill:#E0E0E0;"/>
  <path d="M124,113H19.98c-2.78,0-4.89-1.96-4.98-4.57l0.45-3.64l7.5-56.58 c0.02-0.13,0.03-0.27,0.03-0.4c0-2.69,2.19-4.8,4.98-4.8H124v-3H27.96c-4.39,0-7.98,3.37-7.98,7.8l-7.5,56.58L12,108.26 c0,4.43,3.59,7.74,7.98,7.74H124V113z" style="opacity:0.2;fill:#424242;"/>
  <path d="M112,92H96.61c-2.2,0-4-1.8-4-4V56c0-2.2,1.8-4,4-4H112c2.2,0,4,1.8,4,4v32 C116,90.2,114.2,92,112,92z" style="fill:#4FC3F7;"/>
  <path d="M80.81,92H65.41c-2.2,0-4-1.8-4-4V56c0-2.2,1.8-4,4-4h15.39c2.2,0,4,1.8,4,4v32 C84.81,90.2,83.01,92,80.81,92z" style="fill:#4FC3F7;"/>
  <path d="M49.37,92H29.77c-2.07,0-3.54-1.64-3.27-3.64L31,55.64c0.27-2,2.19-3.64,4.27-3.64h15.06 c2.07,0,3.54,1.64,3.27,3.64l0.03,32.73C53.36,90.36,51.44,92,49.37,92z" style="fill:#4FC3F7;"/>
  <path d="M112,92H96.61c-2.2,0-4-1.8-4-4V56c0-2.2,1.8-4,4-4H112c2.2,0,4,1.8,4,4v32C116,90.2,114.2,92,112,92z" style="fill:none;"/>
  <path d="M80.81,92H65.41c-2.2,0-4-1.8-4-4V56c0-2.2,1.8-4,4-4h15.39c2.2,0,4,1.8,4,4v32 C84.81,90.2,83.01,92,80.81,92z" style="fill:none;"/>
  <path d="M49.37,92H29.77c-2.07,0-3.54-1.64-3.27-3.64L31,55.64c0.27-2,2.19-3.64,4.27-3.64h15.06 c2.07,0,3.54,1.64,3.27,3.64l0.03,32.73C53.36,90.36,51.44,92,49.37,92z" style="fill:none;"/>
  <g style="opacity:0.2;">
    <path d="M112,55c0.54,0,1,0.46,1,1v32c0,0.54-0.46,1-1,1H96.61c-0.54,0-1-0.46-1-1V56c0-0.54,0.46-1,1-1H112 M112,52H96.61c-2.2,0-4,1.8-4,4v32c0,2.2,1.8,4,4,4H112c2.2,0,4-1.8,4-4V56C116,53.8,114.2,52,112,52L112,52z" style="fill:#424242;"/>
  </g>
  <g style="opacity:0.2;">
    <path d="M80.81,55c0.54,0,1,0.46,1,1v32c0,0.54-0.46,1-1,1H65.41c-0.54,0-1-0.46-1-1V56c0-0.54,0.46-1,1-1 H80.81 M80.81,52H65.41c-2.2,0-4,1.8-4,4v32c0,2.2,1.8,4,4,4h15.39c2.2,0,4-1.8,4-4V56C84.81,53.8,83.01,52,80.81,52L80.81,52z" style="fill:#424242;"/>
  </g>
  <g style="opacity:0.2;">
    <path d="M50.33,55c0.17,0,0.26,0.05,0.28,0.07c0.02,0.02,0.02,0.08,0.01,0.15 c-0.02,0.14-0.03,0.27-0.03,0.41l0.03,32.44c-0.14,0.44-0.7,0.92-1.27,0.92H29.77c-0.17,0-0.26-0.05-0.28-0.07 c-0.02-0.02-0.02-0.08-0.01-0.15l4.49-32.73c0.06-0.47,0.67-1.04,1.29-1.04H50.33 M50.33,52H35.27c-2.07,0-3.99,1.64-4.27,3.64 l-4.49,32.73c-0.27,2,1.2,3.64,3.27,3.64h19.59c2.07,0,3.99-1.64,4.27-3.64L53.6,55.64C53.87,53.64,52.4,52,50.33,52L50.33,52z" style="fill:#424242;"/>
  </g>
</svg>
